misc/icons/Mountain/48x48/apps/com.github.gi_lom.dialect.svg

<svg xmlns="http://www.w3.org/2000/svg" width="48" height="48" version="1.1">
 <path style="opacity:0.2" d="m 30.999948,35.431746 c 0.271922,0.674621 0.205312,1.397382 -0.777787,1.931794 l -3.500042,2.318153 c -0.575757,0.282223 -1.555574,1.545435 0,2.298526 -1.323133,-0.17205 -1.604186,-1.109275 -1.944468,-1.912167 l -6.222297,-16.613429 10.111233,6.181741 z"/>
 <path style="opacity:0.2" d="M 23.222077,16 H 42.256473 C 43.777124,16 45,17.202302 45,18.69737 V 39.302631 C 45,40.797699 43.777124,42 42.256473,42 H 27.111012 c -0.777787,0 -1.286693,-0.228516 -1.750021,-0.764702 z"/>
 <path style="fill:#e4e4e4" d="M 23.222077,15 H 42.256473 C 43.777124,15 45,16.202302 45,17.69737 V 38.302631 C 45,39.797699 43.777124,41 42.256473,41 H 27.111012 c -0.777787,0 -1.286693,-0.228516 -1.750021,-0.764702 z"/>
 <path style="opacity:0.1" d="m 31.976139,23.090435 -1.265421,-0.07093 c 0.01367,0.381831 -0.01367,0.719902 -0.0714,1.172676 -0.02886,0.239964 -0.08507,0.550871 -0.141277,0.917602 h -0.243058 c -0.865911,0 -1.947501,-0.09961 -2.700983,-0.226383 l 0.01519,1.101741 c 0.824883,0.07093 1.719649,0.141867 2.700983,0.141867 h 0.01367 c -0.355472,1.595237 -0.923622,3.91643 -1.648247,5.327644 l 1.051218,0.381831 c 0.142798,-0.253548 0.270402,-0.451267 0.440539,-0.664074 0.952478,-1.115302 2.517191,-2.194474 4.207828,-2.194474 1.663415,0 2.530842,1.31914 2.530842,2.363506 0,2.331753 -3.184066,2.882585 -6.482078,2.429849 l 0.297744,1.130409 c 4.321775,0.451267 7.350867,-0.635367 7.350867,-3.587419 0,-1.639011 -1.323133,-3.296215 -3.583577,-3.296215 -1.478107,0 -2.757177,0.852789 -3.993937,1.71454 0.297745,-0.805906 0.624369,-2.447958 0.881077,-3.634195 1.8047,-0.07093 3.979937,-0.297315 5.643624,-0.593138 l -0.01367,-1.073036 c -1.748504,0.38032 -3.753717,0.578031 -5.417287,0.648967 0.0714,-0.3109 0.113934,-0.593139 0.156467,-0.8044 0.08507,-0.38183 0.156468,-0.819505 0.270402,-1.186237 z m 5.330564,-0.495003 -0.753481,0.324479 c 0.384336,0.52371 0.867427,1.383938 1.151475,1.963476 l 0.768687,-0.338064 C 38.189309,23.965785 37.662191,23.104011 37.306703,22.595409 Z M 38.885067,22.031 38.131586,22.35548 c 0.397993,0.522202 0.867427,1.328108 1.180369,1.948407 l 0.767171,-0.351648 c -0.270402,-0.523709 -0.824882,-1.399044 -1.19402,-1.921247 z"/>
 <path style="fill:#ffffff;opacity:0.2" d="M 23.222656 15 L 23.306641 16 L 42.255859 16 C 43.77651 16 45 17.202198 45 18.697266 L 45 17.697266 C 45 16.202198 43.77651 15 42.255859 15 L 23.222656 15 z"/>
 <path style="fill:#6b6a6e" d="m 31.976139,22.090435 -1.265421,-0.07093 c 0.01367,0.381831 -0.01367,0.719902 -0.0714,1.172676 -0.02886,0.239964 -0.08507,0.550871 -0.141277,0.917602 h -0.243058 c -0.865911,0 -1.947501,-0.09961 -2.700983,-0.226383 l 0.01519,1.101741 c 0.824883,0.07093 1.719649,0.141867 2.700983,0.141867 h 0.01367 c -0.355472,1.595237 -0.923622,3.91643 -1.648247,5.327644 l 1.051218,0.381831 c 0.142798,-0.253548 0.270402,-0.451267 0.440539,-0.664074 0.952478,-1.115302 2.517191,-2.194474 4.207828,-2.194474 1.663415,0 2.530842,1.31914 2.530842,2.363506 0,2.331753 -3.184066,2.882585 -6.482078,2.429849 l 0.297744,1.130409 c 4.321775,0.451267 7.350867,-0.635367 7.350867,-3.587419 0,-1.639011 -1.323133,-3.296215 -3.583577,-3.296215 -1.478107,0 -2.757177,0.852789 -3.993937,1.71454 0.297745,-0.805906 0.624369,-2.447958 0.881077,-3.634195 1.8047,-0.07093 3.979937,-0.297315 5.643624,-0.593138 l -0.01367,-1.073036 c -1.748504,0.38032 -3.753717,0.578031 -5.417287,0.648967 0.0714,-0.3109 0.113934,-0.593139 0.156467,-0.8044 0.08507,-0.38183 0.156468,-0.819505 0.270402,-1.186237 z m 5.330564,-0.495003 -0.753481,0.324479 c 0.384336,0.52371 0.867427,1.383938 1.151475,1.963476 l 0.768687,-0.338064 C 38.189309,22.965785 37.662191,22.104011 37.306703,21.595409 Z M 38.885067,21.031 38.131586,21.35548 c 0.397993,0.522202 0.867427,1.328108 1.180369,1.948407 l 0.767171,-0.351648 c -0.270402,-0.523709 -0.824882,-1.399044 -1.19402,-1.921247 z"/>
 <path style="fill:#7d45a8" d="m 30.999948,34.431746 c 0.271922,0.674621 0.205312,1.397382 -0.777787,1.931794 l -3.500042,2.318153 c -0.575757,0.282223 -1.555574,1.545435 0,2.298526 -1.323133,-0.17205 -1.604186,-1.109275 -1.944468,-1.912167 l -6.222297,-16.613429 10.111233,6.181741 z"/>
 <path style="opacity:0.2" d="M 5.7432552,8.0002685 H 20.478822 c 1.520651,0 2.195109,1.3079217 2.743527,2.7057045 C 24.129249,13.302295 30.9,35.183 30.9,35.183 30.587062,34.523785 29.83354,34 29.055753,34 H 5.7435275 C 4.2228758,34 3,32.826385 3,31.326697 V 10.705705 C 3,9.206017 4.2228758,8 5.7435275,8 Z"/>
 <path style="fill:#cd50dc" d="M 5.7432552,7.0002685 H 20.478822 c 1.520651,0 2.195109,1.3079217 2.743527,2.7057047 C 24.129249,12.302295 30.9,34.183 30.9,34.183 30.587062,33.523785 29.83354,33 29.055753,33 H 5.7435275 C 4.2228758,33 3,31.826385 3,30.326697 V 9.7057047 C 3,8.206017 4.2228758,7 5.7435275,7 Z"/>
 <g style="opacity:0.2" transform="matrix(0.38322986,0,0,0.35814053,9.1137809,26)">
  <path d="m 2.3125,0 h 11.328 c 8.2656,0 14.766,-6.1406 14.766,-13.875 0,-7.8594 -6.5,-14.047 -14.766,-14.047 H 2.3125 Z m 11.172,-22.33755 c 4.3906,0 7.8125,3.99415 7.8125,8.46295 0,4.375 -3.460515,8.9119306 -7.8125,8.2901999 H 10.1407 V -22.33765 Z"/>
 </g>
 <g style="fill:#e8b3e9" transform="matrix(0.38322986,0,0,0.35814053,9.1137809,25)">
  <path d="m 2.3125,0 h 11.328 c 8.2656,0 14.766,-6.1406 14.766,-13.875 0,-7.8594 -6.5,-14.047 -14.766,-14.047 H 2.3125 Z m 11.172,-22.33755 c 4.3906,0 7.8125,3.99415 7.8125,8.46295 0,4.375 -3.460515,8.9119306 -7.8125,8.2901999 H 10.1407 V -22.33765 Z"/>
 </g>
 <path style="fill:#ffffff;opacity:0.2" d="M 5.7441406 7 C 4.2234889 7 3 8.2053904 3 9.7050781 L 3 10.705078 C 3 9.2053901 4.2234889 8 5.7441406 8 L 20.478516 8 C 21.999167 8 22.674238 9.3072953 23.222656 10.705078 C 24.063828 13.11323 29.543837 30.809574 30.392578 33.550781 C 30.602144 33.73572 30.786885 33.944489 30.900391 34.183594 C 30.900391 34.183594 24.129556 12.3014 23.222656 9.7050781 C 22.674238 8.3072951 21.999167 7 20.478516 7 L 5.7441406 7 z"/>
</svg>

<svg xmlns="http://www.w3.org/2000/svg" width="48" height="48" version="1.1">
 <path style="opacity:0.2" d="M 31,35.432 C 31.272,36.106 31.205,36.829 30.222,37.364 L 26.722,39.682 C 26.146,39.964 25.167,41.227 26.722,41.98 25.399,41.808 25.118,40.871 24.778,40.068 L 18.555,23.455 28.667,29.636 Z"/>
 <path style="opacity:0.2" d="M 23.222,16 H 42.256 C 43.777,16 45,17.202 45,18.697 V 39.303 C 45,40.798 43.777,42 42.256,42 H 27.111 C 26.333,42 25.824,41.771 25.361,41.235 Z"/>
 <path style="fill:#e4e4e4" d="M 23.222,15 H 42.256 C 43.777,15 45,16.202 45,17.697 V 38.303 C 45,39.798 43.777,41 42.256,41 H 27.111 C 26.333,41 25.824,40.771 25.361,40.235 Z"/>
 <path style="opacity:0.1" d="M 31.976,23.09 30.711,23.02 C 30.724,23.401 30.697,23.739 30.639,24.192 30.61,24.432 30.554,24.743 30.498,25.11 H 30.255 C 29.389,25.11 28.307,25.01 27.554,24.883 L 27.569,25.985 C 28.394,26.056 29.289,26.127 30.27,26.127 H 30.284 C 29.928,27.722 29.36,30.043 28.636,31.455 L 29.687,31.836 C 29.83,31.583 29.957,31.385 30.127,31.172 31.08,30.057 32.645,28.978 34.335,28.978 35.999,28.978 36.866,30.297 36.866,31.341 36.866,33.673 33.682,34.224 30.384,33.771 L 30.682,34.902 C 35.003,35.353 38.033,34.266 38.033,31.314 38.033,29.675 36.709,28.018 34.449,28.018 32.971,28.018 31.692,28.871 30.455,29.733 30.753,28.927 31.079,27.285 31.336,26.098 33.141,26.027 35.316,25.801 36.98,25.505 L 36.966,24.432 C 35.218,24.813 33.212,25.01 31.549,25.081 31.62,24.77 31.663,24.488 31.705,24.277 31.79,23.895 31.862,23.457 31.976,23.091 Z M 37.307,22.595 36.553,22.92 C 36.938,23.444 37.421,24.304 37.705,24.883 L 38.473,24.545 C 38.189,23.966 37.662,23.104 37.307,22.595 Z M 38.885,22.031 38.132,22.355 C 38.53,22.878 38.999,23.684 39.312,24.304 L 40.079,23.952 C 39.809,23.429 39.254,22.553 38.885,22.031 Z"/>
 <path style="opacity:0.2;fill:#ffffff" d="M 23.223,15 23.307,16 H 42.256 C 43.777,16 45,17.202 45,18.697 V 17.697 C 45,16.202 43.777,15 42.256,15 Z"/>
 <path style="fill:#6b6a6e" d="M 31.976,22.09 30.711,22.02 C 30.724,22.401 30.697,22.739 30.639,23.192 30.61,23.432 30.554,23.743 30.498,24.11 H 30.255 C 29.389,24.11 28.307,24.01 27.554,23.883 L 27.569,24.985 C 28.394,25.056 29.289,25.127 30.27,25.127 H 30.284 C 29.928,26.722 29.36,29.043 28.636,30.455 L 29.687,30.836 C 29.83,30.583 29.957,30.385 30.127,30.172 31.08,29.057 32.645,27.978 34.335,27.978 35.999,27.978 36.866,29.297 36.866,30.341 36.866,32.673 33.682,33.224 30.384,32.771 L 30.682,33.902 C 35.003,34.353 38.033,33.266 38.033,30.314 38.033,28.675 36.709,27.018 34.449,27.018 32.971,27.018 31.692,27.871 30.455,28.733 30.753,27.927 31.079,26.285 31.336,25.098 33.141,25.027 35.316,24.801 36.98,24.505 L 36.966,23.432 C 35.218,23.813 33.212,24.01 31.549,24.081 31.62,23.77 31.663,23.488 31.705,23.277 31.79,22.895 31.862,22.457 31.976,22.091 Z M 37.307,21.595 36.553,21.92 C 36.938,22.444 37.421,23.304 37.705,23.883 L 38.473,23.545 C 38.189,22.966 37.662,22.104 37.307,21.595 Z M 38.885,21.031 38.132,21.355 C 38.53,21.878 38.999,22.684 39.312,23.304 L 40.079,22.952 C 39.809,22.429 39.254,21.553 38.885,21.031 Z"/>
 <path style="fill:#1d7a4f" d="M 31,34.432 C 31.272,35.106 31.205,35.829 30.222,36.364 L 26.722,38.682 C 26.146,38.964 25.167,40.227 26.722,40.98 25.399,40.808 25.118,39.871 24.778,39.068 L 18.555,22.455 28.667,28.636 Z"/>
 <path style="opacity:0.2" d="M 5.7433,8.0003 H 20.479 C 21.999,8.0003 22.674,9.3082 23.222,10.706 24.129,13.302 30.9,35.183 30.9,35.183 30.587,34.524 29.834,34 29.056,34 H 5.7435 C 4.2229,34 3,32.826 3,31.327 V 10.706 C 3,9.206 4.2229,8 5.7435,8 Z"/>
 <path style="fill:#33d17a" d="M 5.7433,7.0003 H 20.479 C 21.999,7.0003 22.674,8.3082 23.222,9.706 24.129,12.302 30.9,34.183 30.9,34.183 30.587,33.524 29.834,33 29.056,33 H 5.7435 C 4.2229,33 3,31.826 3,30.327 V 9.7057 C 3,8.206 4.2229,7 5.7435,7 Z"/>
 <path style="opacity:0.2" d="M 10,26 H 14.341 C 17.509,26 20,23.801 20,21.031 20,18.216 17.509,16 14.341,16 H 10 Z M 14.282,18 C 15.964,18 17.275,19.431 17.275,21.031 17.275,22.598 15.949,24.223 14.282,24 H 13 V 18 Z"/>
 <path style="fill:#ffffff" d="M 10,25 H 14.341 C 17.509,25 20,22.801 20,20.031 20,17.216 17.509,15 14.341,15 H 10 Z M 14.282,17 C 15.964,17 17.275,18.431 17.275,20.031 17.275,21.598 15.949,23.223 14.282,23 H 13 V 17 Z"/>
 <path style="opacity:0.2;fill:#ffffff" d="M 5.7441,7 C 4.2235,7 3,8.2054 3,9.7051 V 10.705 C 3,9.2054 4.2235,8 5.7441,8 H 20.479 C 21.999,8 22.674,9.3073 23.223,10.705 24.064,13.113 29.544,30.81 30.393,33.551 30.602,33.736 30.787,33.944 30.9,34.184 30.9,34.184 24.13,12.301 23.223,9.7051 22.674,8.3073 21.999,7 20.479,7 Z"/>
</svg>
